flags/nu.svg

<svg xmlns="http://www.w3.org/2000/svg" xmlns:xlink="http://www.w3.org/1999/xlink" viewBox="0 0 120 60"><clipPath id="a"><path d="M0 0v15h70v15H60zm0 30v10h30V0h30z"/></clipPath><path fill="#012169" d="M0 0h120v60H0z"/><g stroke="#c8102e" stroke-width="6"><path d="M0 0l60 30m0-30L0 30" stroke="#fff"/><path d="M0 0l60 30m0-30L0 30" clip-path="url(#a)" stroke-width="4"/><path d="M30 0v40M0 15h70" stroke="#fff" stroke-width="10"/><path d="M30 0v40M0 15h70"/></g><path d="M60 0h60v60H0V30h60z" fill="#fedd00"/><g transform="translate(30 15)"><g transform="scale(5.1039)"><circle r="1" fill="#012169"/><path id="b" d="M0-513674l301930 929245-790463-574305h977066l-790463 574305" fill="#fedd00" transform="scale(0.00000194676)"/></g><use xlink:href="#b" transform="matrix(3 0 0 3 -17.5 .29)"/><use xlink:href="#b" transform="matrix(3 0 0 3 17.5 .29)"/><use xlink:href="#b" transform="matrix(3 0 0 3 0 10.29)"/><use xlink:href="#b" transform="matrix(3 0 0 3 0 -9.71)"/></g></svg>

<svg xmlns="http://www.w3.org/2000/svg" xmlns:xlink="http://www.w3.org/1999/xlink" viewBox="0 0 120 60">
<clipPath id="t">
<path d="M0,0V15H70V30H60zM0,30V40H30V0H60z"/>
</clipPath>
<title>Flag of Niue</title>
<rect width="120" height="60" fill="#002868"/>
<g stroke="#cf142b" stroke-width="6">
<path d="M0,0L60,30M60,0L0,30" stroke="#fff"/>
<path d="M0,0L60,30M60,0L0,30" clip-path="url(#t)" stroke-width="4"/>
<path d="M30,0V40M0,15H70" stroke="#fff" stroke-width="10"/>
<path d="M30,0V40M0,15H70"/>
</g>
<path d="M60,0h60V60H0V30H60z" fill="#fcd116"/>
<g transform="translate(30,15)">
<g transform="scale(5.10390485)">
<circle r="1" fill="#002868"/>
<path id="s" d="M0,-513674 301930,415571 -488533,-158734H488533L-301930,415571" fill="#fcd116" transform="scale(0.00000194676)"/>
</g>
<use xlink:href="#s" transform="translate(-17.5,0.29) scale(3)"/>
<use xlink:href="#s" transform="translate(17.5,0.29) scale(3)"/>
<use xlink:href="#s" transform="translate(0,10.29) scale(3)"/>
<use xlink:href="#s" transform="translate(0,-9.71) scale(3)"/>
</g>
</svg>
